white/tzc.svg

<!-- Generated by IcoMoon.io -->
<svg version="1.1" xmlns="http://www.w3.org/2000/svg" width="32" height="32" viewBox="0 0 32 32">
<title>tzc</title>
<path fill="#fff" d="M16 32c-8.837 0-16-7.163-16-16s7.163-16 16-16 16 7.163 16 16-7.163 16-16 16zM17.7 15.4h3.5v-2.8h-10.4v2.8h3.5v10.456c0.511 0.092 1.099 0.144 1.699 0.144 0.816 0 1.61-0.097 2.369-0.28l-0.069 0.014v-2.91c-0.146 0.053-0.347 0.113-0.551 0.164l-0.049 0.010zM19.1 25.51c4.005-1.305 6.9-5.070 6.9-9.51 0-5.523-4.477-10-10-10s-10 4.477-10 10c0 4.44 2.895 8.205 6.9 9.51v-3.010c-2.444-1.186-4.1-3.649-4.1-6.498 0-3.976 3.224-7.2 7.2-7.2s7.2 3.224 7.2 7.2c0 2.85-1.655 5.313-4.057 6.48l-0.043 0.019z"></path>
</svg>

<svg height="32" width="32" xmlns="http://www.w3.org/2000/svg"><path d="M16 32C7.163 32 0 24.837 0 16S7.163 0 16 0s16 7.163 16 16-7.163 16-16 16zm1.7-16.6h3.5v-2.8H10.8v2.8h3.5v10.456a10.065 10.065 0 004-.122v-2.91a7.144 7.144 0 01-.6.174zm1.4 10.11C23.105 24.205 26 20.44 26 16c0-5.523-4.477-10-10-10S6 10.477 6 16c0 4.44 2.895 8.205 6.9 9.51V22.5a7.2 7.2 0 116.2 0z" fill="#fff" fill-rule="evenodd"/></svg>
